symbolic/24x24/apps/hw-probe.svg

<svg xmlns="http://www.w3.org/2000/svg" width="24" height="24" version="1.1">
 <circle style="opacity:0.2" cx="12" cy="12.5" r="10"/>
 <path style="fill:#42a5f5" d="m 22,12 c 0,3.261059 -1.560964,6.157534 -3.976469,7.983003 -1.675334,1.2661 -3.266315,-1.222333 -5.528104,-1.222333 -5.195173,0 -9.9473166,-0.884674 -10.4477036,-5.803708 C 2.0161627,12.646705 2,12.327675 2,12 2,6.4771525 6.4771525,2 12,2 17.522847,2 22,6.4771525 22,12 Z"/>
 <path style="opacity:0.2;fill:#ffffff" d="M 12,2 A 10,10 0 0 0 2,12 10,10 0 0 0 2.01075,12.291 10,10 0 0 1 12,2.5 10,10 0 0 1 21.9895,12.209 10,10 0 0 0 22,12 10,10 0 0 0 12,2 Z"/>
 <path style="opacity:0.1;fill-rule:evenodd" d="m 11.474802,5.5108435 c -0.322851,0.00355 -0.659948,0.02797 -1.014435,0.079982 C 7.8970595,5.966915 6.254829,7.2294655 4.1507824,9.7687545 3.295915,10.800459 2.5404141,12.043966 2.0000001,12.998531 c 0.018768,0.352438 0.055891,0.703627 0.1112169,1.052101 1.4765417,-2.043334 5.587308,-5.014298 6.512798,-3.682371 1.0596225,1.524966 -1.99282,3.344381 -1.5830735,3.920501 0.4390475,0.617317 2.361968,-0.112446 4.1465585,-0.24061 1.99235,-0.143083 3.050853,0.473399 4.3817,1.496348 C 15.234031,14.912065 15.014215,14.450132 14.886711,13.996613 14.62168,13.053912 15.32906,11.977375 15.593612,11.461466 16.013934,10.641801 16.367913,9.4998495 16.992773,8.88341 18.086402,7.804516 19.995652,7.2461265 21.682551,6.686359 22.210473,6.5111775 22.678436,6.548277 23.22904,6.4276545 22.718038,6.1424275 22.080214,6.036774 21.559241,6.029057 18.782058,5.987922 17.089576,6.408757 15.968805,6.2866765 14.547315,6.13184 13.218203,5.491628 11.474802,5.5108435 Z"/>
 <path style="fill:#e4e4e4;fill-rule:evenodd" d="M 8.1796875,9.0253905 C 6.5421055,8.8864385 3.4888766,11.138265 2.0986328,13.3125 a 10,10 0 0 0 9.8544922,8.685547 c 0.251215,-0.0014 0.503066,-0.008 0.753906,-0.02343 a 10,10 0 0 0 0.0059,-10e-4 10,10 0 0 0 5.416015,-2.078125 c -0.218932,-1.43018 -0.961384,-3.012417 -2.55961,-4.85057 C 13.55624,12.692924 10.462823,9.4062735 8.1796875,9.0253905 Z"/>
 <path style="fill:#424242;fill-rule:evenodd" d="m 11.474802,5.011082 c -0.322851,0.00355 -0.659948,0.02797 -1.014435,0.079982 -2.5633075,0.3760895 -4.205538,1.63864 -6.3095846,4.177929 -0.8548674,1.031705 -1.6103683,2.275211 -2.1507823,3.229777 0.018768,0.352437 0.055891,0.703626 0.1112169,1.052101 1.4765418,-2.043334 5.587308,-5.0142985 6.512798,-3.682371 1.0596225,1.524966 -1.99282,3.344381 -1.5830735,3.9205 0.4390475,0.617318 2.361968,-0.112445 4.1465585,-0.240609 1.99235,-0.143084 3.050853,0.473399 4.3817,1.496347 -0.335169,-0.632434 -0.554985,-1.094367 -0.682489,-1.547886 -0.265031,-0.942702 0.442349,-2.019239 0.706901,-2.535147 0.420322,-0.819666 0.774301,-1.961617 1.399161,-2.5780565 1.093629,-1.078894 3.002879,-1.6372835 4.689778,-2.197051 C 22.210473,6.011416 22.678436,6.0485155 23.22904,5.927893 22.718038,5.642666 22.080214,5.5370125 21.559241,5.5292955 18.782058,5.4881605 17.089576,5.9089955 15.968805,5.786915 14.547315,5.6320785 13.218203,4.9918665 11.474802,5.011082 Z"/>
 <ellipse style="opacity:0.4;fill:#ffffff" cx="13.53" cy="5.16" rx=".751" ry=".749" transform="matrix(0.98003409,0.19882952,-0.19571032,0.98066175,0,0)"/>
 <path style="fill:#424242;fill-rule:evenodd" d="m 4.7675781,15.021485 c -0.4395122,-0.0078 -1.437272,0.429608 -2.0419922,0.706054 a 10,10 0 0 0 1.03125,1.916015 C 4.1455559,16.34703 5.169889,15.44266 4.9599609,15.09668 4.9294229,15.04635 4.8623669,15.02317 4.7675781,15.02149 Z"/>
 <path style="opacity:0.1;fill-rule:evenodd" d="m 17.393353,7.032814 c 1.19517,-0.333057 3.257138,-1.146327 4.760744,-1.3360765 -0.276865,-0.051669 -0.777931,0.03342 -1.054832,0.06292 -1.484837,0.2939775 -2.934167,0.886041 -3.705912,1.2731575 z"/>
 <path style="fill:#ffc107;fill-rule:evenodd" d="m 14.519624,8.1148785 c 0.588752,-0.305327 0.873252,-0.5591985 2.24833,-0.902744 1.334848,-0.333494 2.995383,-1.139602 4.331311,-1.452478 -2.285617,0.275409 -5.043308,0.85197 -6.579641,2.355222 z"/>
 <path style="opacity:0.1" d="M 11.543946,7.998047 A 0.7512927,0.748705 45.000141 0 0 11.514651,8.100586 0.7512927,0.748705 45.000141 0 0 12.103518,8.9853515 0.7512927,0.748705 45.000141 0 0 12.985354,8.399414 0.7512927,0.748705 45.000141 0 0 12.956059,8.001953 0.7512927,0.748705 45.000141 0 1 12.10352,8.4853515 0.7512927,0.748705 45.000141 0 1 11.54395,7.998047 Z"/>
</svg>

<svg xmlns="http://www.w3.org/2000/svg" width="24" height="24"><circle style="opacity:.2" cx="12" cy="12.5" r="10"/><path style="fill:#42a5f5" d="M22 12a9.985 9.985 0 0 1-3.976 7.983c-1.676 1.266-3.267-1.222-5.529-1.222-5.195 0-9.947-.885-10.447-5.804A9.453 9.453 0 0 1 2 12C2 6.477 6.477 2 12 2s10 4.477 10 10z"/><path style="opacity:.2;fill:#fff" d="M12 2A10 10 0 0 0 2 12a10 10 0 0 0 .01.291A10 10 0 0 1 12 2.5a10 10 0 0 1 9.99 9.709A10 10 0 0 0 22 12 10 10 0 0 0 12 2z"/><path style="opacity:.1;fill-rule:evenodd" d="M11.475 5.51c-.323.004-.66.029-1.015.08-2.563.377-4.205 1.64-6.31 4.179-.854 1.031-1.61 2.275-2.15 3.23.019.352.056.703.111 1.052 1.477-2.044 5.588-5.015 6.513-3.683 1.06 1.525-1.993 3.345-1.583 3.92.439.618 2.362-.112 4.146-.24 1.993-.143 3.051.474 4.382 1.496-.335-.632-.555-1.094-.682-1.547-.265-.943.442-2.02.707-2.536.42-.82.774-1.961 1.399-2.578 1.093-1.078 3.003-1.637 4.69-2.197.527-.175.995-.138 1.546-.258-.511-.286-1.149-.391-1.67-.399-2.777-.041-4.47.38-5.59.258-1.422-.155-2.75-.795-4.494-.776z"/><path style="fill:#e4e4e4;fill-rule:evenodd" d="M8.18 9.025c-1.638-.139-4.691 2.113-6.081 4.287a10 10 0 0 0 9.854 8.686c.251-.001.503-.008.754-.023a10 10 0 0 0 .006-.001 10 10 0 0 0 5.416-2.079c-.219-1.43-.961-3.012-2.56-4.85-2.013-2.352-5.106-5.639-7.39-6.02z"/><path style="fill:#424242;fill-rule:evenodd" d="M11.475 5.011c-.323.004-.66.028-1.015.08-2.563.376-4.205 1.639-6.31 4.178-.854 1.032-1.61 2.275-2.15 3.23.019.352.056.703.111 1.052C3.588 11.508 7.7 8.537 8.624 9.869c1.06 1.524-1.993 3.344-1.583 3.92.439.617 2.362-.112 4.146-.24 1.993-.144 3.051.473 4.382 1.496-.335-.633-.555-1.095-.682-1.548-.265-.943.442-2.02.707-2.535.42-.82.774-1.962 1.399-2.578 1.093-1.08 3.003-1.638 4.69-2.197.527-.176.995-.138 1.546-.26-.511-.284-1.149-.39-1.67-.398-2.777-.04-4.47.38-5.59.258-1.422-.155-2.75-.795-4.494-.776z"/><ellipse style="opacity:.4;fill:#fff" cx="13.53" cy="5.16" rx=".751" ry=".749" transform="matrix(.98003 .19883 -.19571 .98066 0 0)"/><path style="fill:#424242;fill-rule:evenodd" d="M4.768 15.021c-.44-.007-1.438.43-2.042.707a10 10 0 0 0 1.03 1.916c.39-1.297 1.414-2.201 1.204-2.547-.03-.05-.098-.074-.192-.076z"/><path style="opacity:.1;fill-rule:evenodd" d="M17.393 7.033c1.196-.333 3.257-1.147 4.761-1.336-.277-.052-.778.033-1.055.063-1.485.294-2.934.886-3.706 1.273z"/><path style="fill:#ffc107;fill-rule:evenodd" d="M14.52 8.115c.588-.305.873-.56 2.248-.903 1.335-.333 2.995-1.14 4.331-1.452-2.285.275-5.043.852-6.58 2.355z"/><path style="opacity:.1" d="M11.544 7.998a.751.749 45 0 0-.03.103.751.749 45 0 0 .59.884.751.749 45 0 0 .881-.586.751.749 45 0 0-.029-.397.751.749 45 0 1-.852.483.751.749 45 0 1-.56-.487z"/></svg>
